src/assets/footer/fb.svg

<svg fill="none" height="19" viewBox="0 0 18 19" width="18" xmlns="http://www.w3.org/2000/svg"><path d="m9.61438 18.5556h-8.620918c-.548835 0-.993462-.4355-.993462-.9725v-15.67415c0-.53714.444697-.972427.993462-.972427h16.013138c.5486 0 .9934.435287.9934.972427v15.67415c0 .5371-.4448.9725-.9934.9725h-4.5869v-6.8231h2.3397l.3504-2.65907h-2.6901v-1.69764c0-.76987.2184-1.2945 1.3463-1.2945l1.4385-.00062v-2.37829c-.2488-.0324-1.1027-.1048-2.0962-.1048-2.074 0-3.49392 1.23919-3.49392 3.51486v1.96099h-2.34571v2.65907h2.34571z" fill="#fff"/></svg>

<svg width="18" height="19" viewBox="0 0 18 19" fill="none" xmlns="http://www.w3.org/2000/svg">
<path d="M9.61438 18.5556H0.993462C0.444627 18.5556 0 18.1201 0 17.5831V1.90895C0 1.37181 0.444697 0.936523 0.993462 0.936523H17.0066C17.5552 0.936523 18 1.37181 18 1.90895V17.5831C18 18.1202 17.5552 18.5556 17.0066 18.5556H12.4197V11.7325H14.7594L15.1098 9.07343H12.4197V7.37579C12.4197 6.60592 12.6381 6.08129 13.766 6.08129L15.2045 6.08067V3.70238C14.9557 3.66998 14.1018 3.59758 13.1083 3.59758C11.0343 3.59758 9.61438 4.83677 9.61438 7.11244V9.07343H7.26867V11.7325H9.61438V18.5556Z" fill="white"/>
</svg>
